X: 16688
T: Happy Bloom Of Youth, The
R: reel
M: 4/4
K: Gmajor
efed ~B3A|GABG AGEF|GAGE DEGB|dBeB dBAd|
efed ~B3A|GABG AGEF|~G3F DEGB|dBAc BGG2||
e|fgag fd~d2|(3Bcd ef ~g3f|eB~B2 gB~B2|BAGA BA~A2|
fgag fd~d2|(3Bcd ef ~g3a|bgaf gfed|egfa ~g3|

